assets/img/braze_icons/lightbulb-05.svg

<svg fill="none" height="24" viewBox="0 0 24 24" width="24" xmlns="http://www.w3.org/2000/svg"><g fill="#801ed7"><path d="m13 2c0-.55228-.4477-1-1-1s-1 .44772-1 1v1c0 .55228.4477 1 1 1s1-.44772 1-1z"/><path d="m2 11c-.55228 0-1 .4477-1 1s.44772 1 1 1h1c.55228 0 1-.4477 1-1s-.44772-1-1-1z"/><path d="m4.1928 4.1928c.39052-.39053 1.02368-.39053 1.41421 0l.6001.60009c.39052.39053.39052 1.02369 0 1.41422-.39053.39052-1.02369.39052-1.41422 0l-.60009-.6001c-.39053-.39053-.39053-1.02369 0-1.41421z"/><path d="m19.8073 5.6071c.3905-.39048.3906-1.02364.0001-1.41422-.3904-.39057-1.0236-.39065-1.4142-.00017l-.6002.60009c-.3906.39048-.3907 1.02364-.0002 1.41422.3905.39057 1.0236.39065 1.4142.00018z"/><path d="m20 12c0-.5523.4477-1 1-1h1c.5523 0 1 .4477 1 1s-.4477 1-1 1h-1c-.5523 0-1-.4477-1-1z"/><path clip-rule="evenodd" d="m12 5c-3.86599 0-7 3.13401-7 7 0 2.1532.97305 4.0792 2.5 5.3621v1.4764c-.00002.5272-.00003.982.03057 1.3565.0323.3954.10362.7886.29641 1.167.28762.5645.74656 1.0234 1.31105 1.311.37838.1928.7716.2641 1.16697.2964.3745.0306.8293.0306 1.3564.0306h.6772c.5271 0 .9819 0 1.3564-.0306.3954-.0323.7886-.1036 1.167-.2964.5645-.2876 1.0234-.7465 1.311-1.311.1928-.3784.2641-.7716.2964-1.167.0306-.3745.0306-.8293.0306-1.3564v-1.4765c1.5269-1.2829 2.5-3.2089 2.5-5.3621 0-3.86599-3.134-7-7-7zm-3 8.5c0-.5523.44771-1 1-1h4c.5523 0 1 .4477 1 1s-.4477 1-1 1h-1v4c0 .5523-.4477 1-1 1s-1-.4477-1-1v-4h-1c-.55229 0-1-.4477-1-1z" fill-rule="evenodd"/></g></svg>

<svg width="24" height="24" viewBox="0 0 24 24" fill="none" xmlns="http://www.w3.org/2000/svg">
<path d="M13 2C13 1.44772 12.5523 1 12 1C11.4477 1 11 1.44772 11 2V3C11 3.55228 11.4477 4 12 4C12.5523 4 13 3.55228 13 3V2Z" fill="#801ED7"/>
<path d="M2 11C1.44772 11 1 11.4477 1 12C1 12.5523 1.44772 13 2 13H3C3.55228 13 4 12.5523 4 12C4 11.4477 3.55228 11 3 11H2Z" fill="#801ED7"/>
<path d="M4.1928 4.1928C4.58332 3.80227 5.21648 3.80227 5.60701 4.1928L6.20711 4.79289C6.59763 5.18342 6.59763 5.81658 6.20711 6.20711C5.81658 6.59763 5.18342 6.59763 4.79289 6.20711L4.1928 5.60701C3.80227 5.21648 3.80227 4.58332 4.1928 4.1928Z" fill="#801ED7"/>
<path d="M19.8073 5.6071C20.1978 5.21662 20.1979 4.58346 19.8074 4.19288C19.417 3.80231 18.7838 3.80223 18.3932 4.19271L17.793 4.7928C17.4024 5.18328 17.4023 5.81644 17.7928 6.20702C18.1833 6.59759 18.8164 6.59767 19.207 6.2072L19.8073 5.6071Z" fill="#801ED7"/>
<path d="M20 12C20 11.4477 20.4477 11 21 11H22C22.5523 11 23 11.4477 23 12C23 12.5523 22.5523 13 22 13H21C20.4477 13 20 12.5523 20 12Z" fill="#801ED7"/>
<path fill-rule="evenodd" clip-rule="evenodd" d="M12 5C8.13401 5 5 8.13401 5 12C5 14.1532 5.97305 16.0792 7.5 17.3621L7.5 18.8385C7.49998 19.3657 7.49997 19.8205 7.53057 20.195C7.56287 20.5904 7.63419 20.9836 7.82698 21.362C8.1146 21.9265 8.57354 22.3854 9.13803 22.673C9.51641 22.8658 9.90963 22.9371 10.305 22.9694C10.6795 23 11.1343 23 11.6614 23H12.3386C12.8657 23 13.3205 23 13.695 22.9694C14.0904 22.9371 14.4836 22.8658 14.862 22.673C15.4265 22.3854 15.8854 21.9265 16.173 21.362C16.3658 20.9836 16.4371 20.5904 16.4694 20.195C16.5 19.8205 16.5 19.3657 16.5 18.8386V17.3621C18.0269 16.0792 19 14.1532 19 12C19 8.13401 15.866 5 12 5ZM9 13.5C9 12.9477 9.44771 12.5 10 12.5H14C14.5523 12.5 15 12.9477 15 13.5C15 14.0523 14.5523 14.5 14 14.5H13V18.5C13 19.0523 12.5523 19.5 12 19.5C11.4477 19.5 11 19.0523 11 18.5V14.5H10C9.44771 14.5 9 14.0523 9 13.5Z" fill="#801ED7"/>
</svg>
